X:1
T:Title
%%score 1 { 2 | 3 }
L:1/8
Q:1/4=95
M:3/4
K:E
V:1 treble nm="Grand Piano, Unnamed-000"
V:2 bass nm="Choir Pad, Americus, 86.86 D"
V:3 bass 
V:1
 [EB][EB] [Ec] [EB]3 | [EG][EG] [EA] [EG]3 | [EG][DA] [EB][Ec] [EB][DA]- | [DA] [EG]2 [DF]3 | %4
w: By~Charles~Hutchinson~Gabriel,~1901 * * *||||
 [DF][FB] [Gc] [Fd]3- | [Fd] [Ec]2 [DB]3 | [DB][Ec] [Fd] [Ge]3 | [EB][Ec] [E=d] [Ec]3 | %8
w: ||||
 [EF][EG] [DA][EB] [EB][DB]- | [DB] [FA]2 [EG]3 | [B,E][B,E] [DE] [CE]3- | [CE] [^B,F]2 [=B,G]3 | %12
w: ||||
 [EG][EB] [EA] [EG]3- | [EG] [DF]2 E3- | E4 z2 |] %15
w: |||
V:2
 G,G, A, G,3 | B,B, C B,3 | B,B, B,A, B,B,- | B, B,2 B,3 | B,B, B, B,3- | B, ^A,2 B,3 | %6
 B,B, B, B,3 | G,A, B, A,3 | CB, B,G, G,F,- | F, B,2 B,3 | G,A, B, A,3- | A, A,2 G,3 | %12
 B,B, C B,3- | B, A,2 G,3- | G,4 z2 |] %15
V:3
 E,E, E, E,3 | E,E, E, E,3 | E,F, .G,2 G,F,- | F, E,2 B,,3 | B,,D, E, F,3- | F, F,2 B,,3 | %6
 A,G, F, E,3 | E,E, E, A,,3 | A,G, F,E, E,B,,- | B,, B,,2 E,3 | E,F, .G,2 z2 | z A,,2 E,3 | %12
 E,G,, A,, B,,3- | B,, B,,2 E,3- | E,4 z2 |] %15

